X: 21071
T: PAIN'S FIRST SET OF QUADRILLES #4
B: K\"ohler's Violin Repository, v.2, 1885 p.107 #1
F: http://www.archive.org/details/klersviolinrepos02rugg
Z: 2012 John Chambers <jc:trillian.mit.edu>
M: 2/4
L: 1/16
K: D
(uag) |\
f2a2e2a2 | f2a2d'2 (d'c') | b2(ba) g2(gf) | e2e2e2 (ag) |\
f2a2e2a2 | f2a2d'2 (d'c') | bagf egec | d2f2d2 ||
((3uagf) |\
e2(ef) g2g2 | f2a2d2d'2 | c'2c'a e'2e'c' | d'2d'2a2 (gf) |\
e2(ef) g2g2 | f2a2d'2 (d'c') | bagf egec | d2f2d2 ||
uF2 |\
B2(Bc) edcB | f2f2 gfed | c2c2 cdec | d2B2B2F2 |\
B2(Bc) edcB | f2f2 gfef | gefd ecdB | A2a2a2 (gf) |
g2(ba) gfed | cAce a2e2 | f2(ag) fedc | dAdf a2a2 |\
B2c2d2e2 | [f6A6D6] (ge) | fdec dBc^A | [B6F6] "_D.C."|]

%%sep 2 1 500

